svgs/sharp-light/file.svg

<svg xmlns="http://www.w3.org/2000/svg" viewBox="0 0 384 512"><!--! Font Awesome Pro 6.6.0 by @fontawesome - https://fontawesome.com License - https://fontawesome.com/license (Commercial License) Copyright 2024 Fonticons, Inc. --><path d="M352 192l-144 0-16 0 0-16 0-144L32 32l0 448 320 0 0-288zm-5.3-32L224 37.3 224 160l122.7 0zM32 0L232 0 384 152l0 328 0 32-32 0L32 512 0 512l0-32L0 32 0 0 32 0z"/></svg>

<svg xmlns="http://www.w3.org/2000/svg" viewBox="0 0 384 512"><!--! Font Awesome Pro 6.5.2 by @fontawesome - https://fontawesome.com License - https://fontawesome.com/license (Commercial License) Copyright 2024 Fonticons, Inc. --><path d="M352 192H208 192V176 32H32V480H352V192zm-5.3-32L224 37.3V160H346.7zM32 0H232L384 152V480v32H352 32 0V480 32 0H32z"/></svg>
